X: 1175
T: İçimde Bin Türlü Keder
C: Avni Anıl
O: Turkey
F: http://compmusic.upf.edu/node/140
N: huzzam--sarki--duyek--icimde_bin--avni_anil
N: makam= huzzam
N: form= sarki
N: usul= duyek = 8/4
M: 8/4
L: 1/16
K: C _1/4B _3/4e ^3/4f 
Q: 1/4=138
%%MIDI tuningsystem comma53
d/e/d/c/ de de dc .c2 z2 z4  | c/d/c/B/ cd cd cB .B4 z4  | 
w:  ARANAĞME  |   | 
d/e/d/c/ de de dc g4 f2 e2  | d2 B2 c2 ^A2 B8  | \
w:   |   | 
d/e/d/c/ de de dc .c2 z2 z4  | 
w:  ARANAĞME  | 
c/d/c/B/ cd cd cB .B4 z4  | d/e/d/c/ de de dc g4 f2 e2  | 
w:   |   | 
d2 B2 c2 ^A2 B8  | c2 d6 de fg a4  | \
w:   |  İ çim de   | 
z2 a2 g2 f2 f3g fe ed  | 
w:  bin  *  *  tür *  lü  *  ke  | 
d6 de dc B^A B4  | c2 d6 de fg a4  | \
w:  der   SAZ  |  İ çim de   | 
z2 a2 g2 f2 f3g fe ed  | 
w:  bin  *  *  tür *  lü  *  ke  | 
d6 de dc Bc d4  | dc de fg ab c'2 _b2 a2 g2  | \
w:  der   SAZ  |  Sen *  *  *  *  *  *  *  den   | 
g2 f6 f=e ef g4  | 
w:  ge lir   | 
g2 g4 f2 ef ef ef ef  | fe d4 de dc Bc d4  | 
w:  sa na   |  gi *  der   SAZ  | 
dc de de dc c2 d2 c2 B2  | d2 e4 d2 dc cd e4  | \
w:  Sen *  *  *  *  *  *  *  den   |  ge lir   | 
d2 d4 c2 cd cd cd cd  | 
w:  sa na   | 
dc B6 c'2 b^a b4  | z2 b4 b2 c'2 b^a b4  | \
w:  gi *  der   SAZ  |  Al nı ma   | 
c'4 b4 ^a2 ba g4  | g2 g4 f2 =e8  | 
w:   |  ya zı *  lan   | 
f2 g6 fg af g4  | z2 g4 g2 ga f2 f2 e2  | \
w:  ka der   SAZ  |  Al nı ma   | 
de fg a2 gf fe ed d4  | 
w:   | 
g2 g4 f2 ef ef ef ef  | fe d4 de dc Bc d4  | 
w:  ya zı *  lan   |  ka *  der   SAZ  | 
dc de fg ab c'2 _b2 a2 g2  | g2 f6 f=e ef g4  | \
w:  Sen *  *  *  *  *  *  *  den   |  ge lir   | 
g2 g4 f2 ef ef ef ef  | 
w:  sa na   | 
fe d4 de dc Bc d4  | dc de de dc c2 d2 c2 B2  | 
w:  gi *  der   SAZ  |  Sen *  *  *  *  *  *  *  den   | 
d2 e4 d2 dc cd e4  | d2 d4 c2 cd cd cd cd  | \
w:  ge lir   |  sa na   | 
dc B6 |
w:  gi *  der    | 


